icons/fill-new-container-box-takeaway.svg

<svg xmlns="http://www.w3.org/2000/svg" width="32px" height="32px" viewBox="0 0 32 32" version="1.1">
    <title>fill-new-container-box-takeaway</title>
    <g id="fill-new-container-box-takeaway" stroke-width="1" fill-rule="evenodd">
        <path d="M2,3 L30,3 C30.5522847,3 31,3.44771525 31,4 L31,10 C31,10.5522847 30.5522847,11 30,11 L2,11 C1.44771525,11 1,10.5522847 1,10 L1,4 C1,3.44771525 1.44771525,3 2,3 Z M28,13 L28,28 C28,28.5522847 27.5522847,29 27,29 L5,29 C4.44771525,29 4,28.5522847 4,28 L4,13 L28,13 Z M19,17 L13,17 C12.4477153,17 12,17.4477153 12,18 C12,18.5522847 12.4477153,19 13,19 L19,19 C19.5522847,19 20,18.5522847 20,18 C20,17.4477153 19.5522847,17 19,17 Z" id="&#24418;&#29366;" />
    </g>
</svg>

<svg xmlns="http://www.w3.org/2000/svg" viewBox="0 0 32 32"><path fill="currentColor" d="M2 3h28a1 1 0 0 1 1 1v6a1 1 0 0 1-1 1H2a1 1 0 0 1-1-1V4a1 1 0 0 1 1-1m26 10v15a1 1 0 0 1-1 1H5a1 1 0 0 1-1-1V13zm-9 4h-6a1 1 0 0 0 0 2h6a1 1 0 0 0 0-2"/></svg>
